img/partners/sber-bank.svg

<svg width="325" height="82" viewBox="0 0 325 82" fill="none" xmlns="http://www.w3.org/2000/svg">
<path d="M146.693 31.6088L152.852 27.0703H132.429V53.9775H152.852V49.4389H138.264V42.6311H150.583V38.0925H138.264V31.6088H146.693ZM121.244 31.6088L127.404 27.0703H104.063V53.9775H116.22C123.027 53.9775 126.918 50.8978 126.918 45.5487C126.918 40.3618 123.352 37.6062 116.868 37.6062H109.736V31.6088H121.244V31.6088ZM116.057 41.9827C119.786 41.9827 121.406 43.2795 121.406 45.7108C121.406 48.1422 119.623 49.4389 116.057 49.4389H109.898V41.9827H116.057ZM169.224 27.0703H158.201V53.9775H164.037V46.3592H169.386C176.518 46.3592 180.894 42.6311 180.894 36.6337C180.894 30.6363 176.356 27.0703 169.224 27.0703V27.0703ZM169.224 41.8206H164.037V31.4467H169.224C172.952 31.4467 175.059 33.2298 175.059 36.6337C174.897 40.0376 172.952 41.8206 169.224 41.8206ZM94.175 48.1422C92.5541 48.9527 90.9332 49.4389 89.1502 49.4389C83.9632 49.4389 80.073 45.7108 80.073 40.5239C80.073 35.337 83.8012 31.6088 89.1502 31.6088C91.0953 31.6088 92.8783 32.2572 94.4992 33.2298L98.7136 30.15L98.3894 29.8258C95.958 27.7186 92.7162 26.584 88.9881 26.584C84.9358 26.584 81.3698 27.8807 78.6142 30.4742C76.0207 33.0677 74.3998 36.6337 74.5619 40.3618C74.5619 44.0899 76.0207 47.6559 78.6142 50.4115C81.3698 53.005 85.0979 54.4638 88.826 54.3017C93.0404 54.3017 96.6064 52.8429 99.1999 50.2494L95.4718 47.4938L94.175 48.1422ZM269.072 38.0925H256.591V27.0703H250.756V53.9775H256.591V42.9553H269.072V53.9775H274.908V27.0703H269.072V38.0925ZM229.684 27.0703L218.013 53.9775H223.849L226.118 48.6285H238.437L240.706 53.9775H246.866L235.519 27.0703H229.684V27.0703ZM228.063 44.0899L232.602 33.2298L236.816 44.0899H228.063ZM295.98 40.0376L306.515 27.0703H299.87L291.117 38.5788H287.875V27.0703H282.04V53.9775H287.875V43.1174H291.603L300.518 53.9775H307.974L295.98 40.0376ZM205.856 37.6062H198.724V31.6088H213.961V27.0703H192.889V53.9775H205.046C211.854 53.9775 215.744 50.8978 215.744 45.5487C215.906 40.3618 212.34 37.6062 205.856 37.6062V37.6062ZM204.884 49.601H198.724V42.1448H204.884C208.612 42.1448 210.233 43.4415 210.233 45.8729C210.395 48.3043 208.45 49.601 204.884 49.601V49.601Z" fill="#253256"/>
<path d="M55.8912 26.5527C56.9435 27.9315 57.8344 29.4295 58.5457 31.0165L38.367 46.0915L29.9338 40.7339V34.2885L38.367 39.6461L55.8912 26.5527Z" fill="#253256"/>
<path d="M21.3269 40.2791C21.3269 39.9898 21.3339 39.7025 21.3478 39.4169L16.2371 39.1631C16.2197 39.5333 16.2092 39.9071 16.2092 40.2843C16.2071 43.2317 16.7791 46.1504 17.8926 48.8731C19.006 51.596 20.6389 54.0691 22.6977 56.1508L26.3229 52.4786C24.7381 50.879 23.4809 48.9777 22.6236 46.8841C21.7662 44.7905 21.3255 42.5458 21.3269 40.2791Z" fill="#9AACDE"/>
<path d="M38.3619 23.0151C38.6471 23.0151 38.9306 23.0257 39.2124 23.0398L39.4681 17.8585C39.1017 17.8409 38.7329 17.832 38.3619 17.832C35.4522 17.8285 32.5707 18.4074 29.8825 19.5355C27.1943 20.6637 24.7525 22.3189 22.6973 24.4061L26.3225 28.0801C27.9009 26.4734 29.7771 25.1989 31.8433 24.3297C33.9094 23.4604 36.1247 23.0137 38.3619 23.0151Z" fill="#9AACDE"/>
<path d="M38.3619 57.5436C38.0767 57.5436 37.7931 57.5436 37.5096 57.5207L37.2539 62.7002C37.6215 62.719 37.9909 62.7285 38.3619 62.7285C41.2704 62.7315 44.1505 62.1522 46.8373 61.0237C49.524 59.8953 51.9642 58.2398 54.0179 56.1527L50.3996 52.4805C48.8209 54.0862 46.9449 55.3601 44.8791 56.229C42.8134 57.0979 40.5986 57.5447 38.3619 57.5436Z" fill="#9AACDE"/>
<path d="M47.9648 26.0278L52.2718 22.8104C48.3351 19.5798 43.4211 17.8211 38.3555 17.8301V23.0149C41.7857 23.0106 45.1362 24.0612 47.9648 26.0278Z" fill="#9AACDE"/>
<path d="M60.5149 40.2789C60.5176 38.9301 60.4012 37.5837 60.1669 36.2559L55.3989 39.817C55.3989 39.9705 55.3989 40.1238 55.3989 40.2789C55.4001 42.6911 54.9012 45.0767 53.9345 47.2809C52.9677 49.4852 51.5547 51.459 49.7871 53.0743L53.2262 56.9265C55.5242 54.8239 57.3606 52.2555 58.6162 49.3877C59.8719 46.5198 60.5187 43.4164 60.5149 40.2789Z" fill="#9AACDE"/>
<path d="M38.362 57.5447C35.9816 57.5455 33.6276 57.0397 31.4524 56.06C29.2772 55.0803 27.3292 53.6485 25.7347 51.8574L21.9355 55.341C24.0099 57.6703 26.5441 59.5317 29.3739 60.8045C32.2038 62.0773 35.2659 62.7332 38.362 62.7294V57.5447Z" fill="#9AACDE"/>
<path d="M26.9387 27.4839L23.5014 23.6318C21.2027 25.7339 19.3657 28.3022 18.1094 31.1701C16.8532 34.038 16.2058 37.1415 16.2092 40.2793H21.327C21.3259 37.8672 21.8249 35.4817 22.7916 33.2774C23.7583 31.0732 25.1712 29.0994 26.9387 27.4839Z" fill="#9AACDE"/>
</svg>

<svg width="325" height="82" fill="none" xmlns="http://www.w3.org/2000/svg"><path d="M146.693 31.609l6.159-4.539h-20.423v26.907h20.423V49.44h-14.588v-6.81h12.319v-4.538h-12.319v-6.484h8.429zm-25.449 0l6.16-4.539h-23.341v26.907h12.157c6.807 0 10.698-3.08 10.698-8.428 0-5.187-3.566-7.943-10.05-7.943h-7.132V31.61h11.508zm-5.187 10.374c3.729 0 5.349 1.297 5.349 3.728s-1.783 3.728-5.349 3.728h-6.159v-7.456h6.159zm53.167-14.913h-11.023v26.907h5.836V46.36h5.349c7.132 0 11.508-3.728 11.508-9.725 0-5.998-4.538-9.564-11.67-9.564zm0 14.75h-5.187V31.448h5.187c3.728 0 5.835 1.783 5.835 5.187-.162 3.404-2.107 5.187-5.835 5.187zm-75.049 6.322c-1.62.81-3.242 1.297-5.025 1.297-5.187 0-9.077-3.728-9.077-8.915 0-5.187 3.728-8.915 9.077-8.915 1.945 0 3.728.648 5.35 1.62l4.214-3.079-.325-.324c-2.431-2.107-5.673-3.242-9.4-3.242-4.053 0-7.62 1.297-10.375 3.89-2.593 2.594-4.214 6.16-4.052 9.888 0 3.728 1.459 7.294 4.052 10.05 2.756 2.593 6.484 4.052 10.212 3.89 4.214 0 7.78-1.46 10.374-4.053l-3.728-2.755-1.297.648zm174.897-10.05h-12.481V27.07h-5.835v26.907h5.835V42.956h12.481v11.023h5.836V27.07h-5.836v11.023zM229.684 27.07l-11.671 26.907h5.836l2.269-5.348h12.319l2.269 5.349h6.16L235.519 27.07h-5.835zm-1.621 17.02l4.539-10.86 4.214 10.86h-8.753zm67.917-4.052l10.535-12.968h-6.645l-8.753 11.509h-3.242V27.07h-5.835v26.907h5.835v-10.86h3.728l8.915 10.86h7.456l-11.994-13.94zm-90.124-2.432h-7.132V31.61h15.237v-4.54h-21.072v26.907h12.157c6.808 0 10.698-3.08 10.698-8.428.162-5.187-3.404-7.943-9.888-7.943zm-.972 11.995h-6.16v-7.456h6.16c3.728 0 5.349 1.296 5.349 3.728.162 2.431-1.783 3.728-5.349 3.728zM55.891 26.553a22.58 22.58 0 012.655 4.463L38.367 46.093l-8.433-5.358v-6.446l8.433 5.358 17.524-13.093z" fill="#253256"/><path d="M21.327 40.28c0-.29.007-.578.02-.863l-5.11-.254a22.651 22.651 0 001.655 9.71 22.408 22.408 0 004.806 7.278l3.625-3.672a17.217 17.217 0 01-3.7-5.595 17.403 17.403 0 01-1.296-6.605zm17.035-17.265c.285 0 .569.01.85.025l.256-5.181a23.054 23.054 0 00-1.106-.027 21.84 21.84 0 00-8.48 1.703 22.075 22.075 0 00-7.185 4.871l3.626 3.674a16.96 16.96 0 015.52-3.75 16.778 16.778 0 016.519-1.315zm0 34.529c-.285 0-.569 0-.852-.023l-.256 5.18a21.823 21.823 0 009.583-1.677 22.062 22.062 0 007.18-4.871L50.4 52.48a16.971 16.971 0 01-5.52 3.748 16.784 16.784 0 01-6.518 1.315z" fill="#9AACDE"/><path d="M47.965 26.028l4.307-3.218a21.87 21.87 0 00-13.916-4.98v5.185a16.792 16.792 0 019.609 3.013zm12.55 14.251a22.889 22.889 0 00-.348-4.023l-4.768 3.561v.462a17.416 17.416 0 01-1.465 7.002 17.21 17.21 0 01-4.147 5.793l3.44 3.852a22.383 22.383 0 005.39-7.538 22.647 22.647 0 001.898-9.11zM38.362 57.545c-2.38 0-4.734-.505-6.91-1.485a17.01 17.01 0 01-5.717-4.203l-3.8 3.484a22.107 22.107 0 007.439 5.463 21.842 21.842 0 008.988 1.925v-5.184zM26.939 27.484L23.5 23.632a22.381 22.381 0 00-5.392 7.538 22.647 22.647 0 00-1.9 9.11h5.118a17.418 17.418 0 011.465-7.003 17.212 17.212 0 014.147-5.793z" fill="#9AACDE"/></svg>
